scalable/apps/hp_logo.svg

<?xml version="1.0" encoding="UTF-8" standalone="no"?>
<!-- Created with Inkscape (http://www.inkscape.org/) -->

<svg
   width="128"
   height="128"
   viewBox="0 0 128 128"
   version="1.1"
   id="svg5"
   inkscape:version="1.2.2 (b0a8486541, 2022-12-01)"
   sodipodi:docname="hp_logo.svg"
   inkscape:export-filename="/home/retro/.icons/skeuowaita/scalable/apps/skeuowaita.png"
   inkscape:export-xdpi="1536"
   inkscape:export-ydpi="1536"
   xml:space="preserve"
   xmlns:inkscape="http://www.inkscape.org/namespaces/inkscape"
   xmlns:sodipodi="http://sodipodi.sourceforge.net/DTD/sodipodi-0.dtd"
   xmlns:xlink="http://www.w3.org/1999/xlink"
   xmlns="http://www.w3.org/2000/svg"
   xmlns:svg="http://www.w3.org/2000/svg"><sodipodi:namedview
     id="namedview7"
     pagecolor="#ffffff"
     bordercolor="#666666"
     borderopacity="1"
     inkscape:pageshadow="2"
     inkscape:pageopacity="0.0"
     inkscape:pagecheckerboard="true"
     inkscape:document-units="px"
     showgrid="false"
     inkscape:showpageshadow="false"
     showborder="true"
     inkscape:snap-page="true"
     inkscape:zoom="2.828427"
     inkscape:cx="150.9673"
     inkscape:cy="69.296468"
     inkscape:window-width="1366"
     inkscape:window-height="731"
     inkscape:window-x="0"
     inkscape:window-y="0"
     inkscape:window-maximized="1"
     inkscape:current-layer="layer2"
     inkscape:snap-bbox="true"
     inkscape:snap-bbox-midpoints="true"
     inkscape:snap-bbox-edge-midpoints="true"
     inkscape:bbox-nodes="true"
     inkscape:bbox-paths="true"
     inkscape:snap-intersection-paths="true"
     inkscape:object-paths="true"
     inkscape:snap-smooth-nodes="true"
     inkscape:snap-midpoints="true"
     inkscape:deskcolor="#d1d1d1" /><defs
     id="defs2"><linearGradient
       inkscape:collect="always"
       id="linearGradient2626"><stop
         style="stop-color:#236096;stop-opacity:1;"
         offset="0"
         id="stop2622" /><stop
         style="stop-color:#236096;stop-opacity:1;"
         offset="0.40232599"
         id="stop2634" /><stop
         style="stop-color:#2b70ab;stop-opacity:1;"
         offset="0.5"
         id="stop2630" /><stop
         style="stop-color:#236096;stop-opacity:1;"
         offset="0.60129619"
         id="stop2632" /><stop
         style="stop-color:#236096;stop-opacity:1;"
         offset="1"
         id="stop2624" /></linearGradient><linearGradient
       y2="236"
       x2="96"
       y1="236"
       x1="32"
       gradientTransform="translate(604.81684,170.58641)"
       gradientUnits="userSpaceOnUse"
       id="linearGradient1099"
       xlink:href="#linearGradient1036" /><linearGradient
       id="linearGradient1036"><stop
         id="stop1032"
         offset="0"
         style="stop-color:#d5d3cf;stop-opacity:1;" /><stop
         id="stop1034"
         offset="1"
         style="stop-color:#f6f5f4;stop-opacity:1" /></linearGradient><radialGradient
       r="32"
       fy="-76"
       fx="-244"
       cy="-76"
       cx="-244"
       gradientTransform="matrix(0.88333331,0,0,0.88333331,-460.35018,463.11973)"
       gradientUnits="userSpaceOnUse"
       id="radialGradient1103"
       xlink:href="#linearGradient1069" /><linearGradient
       id="linearGradient1069"><stop
         id="stop1065"
         offset="0"
         style="stop-color:#d5d3cf;stop-opacity:1" /><stop
         id="stop1067-1"
         offset="1"
         style="stop-color:#949390;stop-opacity:1" /></linearGradient><linearGradient
       gradientUnits="userSpaceOnUse"
       y2="232"
       x2="64"
       y1="262.5"
       x1="64"
       id="linearGradient1027"
       xlink:href="#linearGradient1025"
       gradientTransform="translate(-470.5864,432.81685)" /><linearGradient
       id="linearGradient1025"><stop
         id="stop1021"
         offset="0"
         style="stop-color:#9a9996;stop-opacity:1" /><stop
         id="stop1023"
         offset="1"
         style="stop-color:#77767b;stop-opacity:1" /></linearGradient><inkscape:path-effect
       effect="spiro"
       id="path-effect35304-9"
       is_visible="true" /><clipPath
       clipPathUnits="userSpaceOnUse"
       id="clipPath1609-7"><path
         sodipodi:nodetypes="cccccc"
         inkscape:connector-curvature="0"
         id="path1611-5"
         d="m 252,116 28,-28 v -8 h -36 v 36 z"
         style="fill:#e74747;stroke:none;stroke-width:0.25px;stroke-linecap:butt;stroke-linejoin:miter;stroke-opacity:1" /></clipPath><radialGradient
       r="32"
       fy="-76"
       fx="-244"
       cy="-76"
       cx="-244"
       gradientTransform="matrix(0.88333331,0,0,0.88333331,-460.35018,463.11973)"
       gradientUnits="userSpaceOnUse"
       id="radialGradient1103-5"
       xlink:href="#linearGradient1069" /><inkscape:path-effect
       effect="spiro"
       id="path-effect35304-9-2"
       is_visible="true" /><clipPath
       clipPathUnits="userSpaceOnUse"
       id="clipPath1609-7-7"><path
         sodipodi:nodetypes="cccccc"
         inkscape:connector-curvature="0"
         id="path1611-5-0"
         d="m 252,116 28,-28 v -8 h -36 v 36 z"
         style="fill:#e74747;stroke:none;stroke-width:0.25px;stroke-linecap:butt;stroke-linejoin:miter;stroke-opacity:1" /></clipPath><clipPath
       clipPathUnits="userSpaceOnUse"
       id="clipPath744"><rect
         style="fill:#1e88e5;fill-opacity:1;stroke-width:0.264583"
         id="rect746"
         width="541.86664"
         height="541.86664"
         x="0"
         y="1.5987212e-14"
         rx="79.375"
         ry="79.375" /></clipPath><clipPath
       clipPathUnits="userSpaceOnUse"
       id="clipPath62"><rect
         style="fill:#1e88e5;fill-opacity:1;stroke-width:0.264583"
         id="rect64"
         width="541.86664"
         height="541.86664"
         x="2.2507105e-05"
         y="-0.42205024"
         rx="79.375"
         ry="79.375" /></clipPath><radialGradient
       r="32"
       fy="-76"
       fx="-244"
       cy="-76"
       cx="-244"
       gradientTransform="matrix(0.88333331,0,0,0.88333331,-460.35018,463.11973)"
       gradientUnits="userSpaceOnUse"
       id="radialGradient1103-6"
       xlink:href="#linearGradient1069" /><inkscape:path-effect
       effect="spiro"
       id="path-effect35304-9-20"
       is_visible="true" /><clipPath
       clipPathUnits="userSpaceOnUse"
       id="clipPath1609-7-2"><path
         sodipodi:nodetypes="cccccc"
         inkscape:connector-curvature="0"
         id="path1611-5-3"
         d="m 252,116 28,-28 v -8 h -36 v 36 z"
         style="fill:#e74747;stroke:none;stroke-width:0.25px;stroke-linecap:butt;stroke-linejoin:miter;stroke-opacity:1" /></clipPath><clipPath
       clipPathUnits="userSpaceOnUse"
       id="clipPath961"><rect
         style="fill:#00c853;stroke:none;stroke-width:0.529037"
         id="rect963"
         width="541.86664"
         height="541.86664"
         x="1.4210855e-14"
         y="2.717972e-05"
         rx="79.375"
         ry="79.375" /></clipPath><radialGradient
       r="32"
       fy="-76"
       fx="-244"
       cy="-76"
       cx="-244"
       gradientTransform="matrix(0.88333331,0,0,0.88333331,-460.35018,463.11973)"
       gradientUnits="userSpaceOnUse"
       id="radialGradient1103-56"
       xlink:href="#linearGradient1069" /><inkscape:path-effect
       effect="spiro"
       id="path-effect35304-9-7"
       is_visible="true" /><clipPath
       clipPathUnits="userSpaceOnUse"
       id="clipPath1440"><circle
         style="display:inline;opacity:1;vector-effect:none;fill:none;fill-opacity:1;stroke:#000000;stroke-width:2;stroke-linecap:butt;stroke-linejoin:miter;stroke-miterlimit:4;stroke-dasharray:none;stroke-dashoffset:0;stroke-opacity:1;marker:none;marker-start:none;marker-mid:none;marker-end:none;paint-order:normal;enable-background:new"
         id="circle1442"
         cx="-134.35028"
         cy="193.74727"
         r="24"
         transform="rotate(-45)" /></clipPath><clipPath
       clipPathUnits="userSpaceOnUse"
       id="clipPath1430"><circle
         style="display:inline;opacity:1;vector-effect:none;fill:none;fill-opacity:1;stroke:#000000;stroke-width:2;stroke-linecap:butt;stroke-linejoin:miter;stroke-miterlimit:4;stroke-dasharray:none;stroke-dashoffset:0;stroke-opacity:1;marker:none;marker-start:none;marker-mid:none;marker-end:none;paint-order:normal;enable-background:new"
         id="circle1432"
         cx="12"
         cy="232"
         r="24" /></clipPath><clipPath
       clipPathUnits="userSpaceOnUse"
       id="clipPath1440-9"><circle
         style="display:inline;opacity:1;vector-effect:none;fill:none;fill-opacity:1;stroke:#000000;stroke-width:2;stroke-linecap:butt;stroke-linejoin:miter;stroke-miterlimit:4;stroke-dasharray:none;stroke-dashoffset:0;stroke-opacity:1;marker:none;marker-start:none;marker-mid:none;marker-end:none;paint-order:normal;enable-background:new"
         id="circle1442-5"
         cx="-134.35028"
         cy="193.74727"
         r="24"
         transform="rotate(-45)" /></clipPath><clipPath
       clipPathUnits="userSpaceOnUse"
       id="clipPath1430-1"><circle
         style="display:inline;opacity:1;vector-effect:none;fill:none;fill-opacity:1;stroke:#000000;stroke-width:2;stroke-linecap:butt;stroke-linejoin:miter;stroke-miterlimit:4;stroke-dasharray:none;stroke-dashoffset:0;stroke-opacity:1;marker:none;marker-start:none;marker-mid:none;marker-end:none;paint-order:normal;enable-background:new"
         id="circle1432-8"
         cx="12"
         cy="232"
         r="24" /></clipPath><clipPath
       clipPathUnits="userSpaceOnUse"
       id="clipPath2024"><rect
         style="opacity:1;vector-effect:none;fill:#63452c;fill-opacity:1;stroke:none;stroke-width:4;stroke-linecap:round;stroke-linejoin:round;stroke-miterlimit:4;stroke-dasharray:none;stroke-dashoffset:0;stroke-opacity:1"
         id="rect2026"
         width="74"
         height="98"
         x="6"
         y="196" /></clipPath><linearGradient
       id="linearGradient914"
       inkscape:collect="always"><stop
         id="stop910"
         offset="0"
         style="stop-color:#f6f5f4;stop-opacity:0.43700787" /><stop
         id="stop912"
         offset="1"
         style="stop-color:#deddda;stop-opacity:0;" /></linearGradient><radialGradient
       gradientTransform="matrix(2.6086955,0,0,1.8410361,-102.95652,-748.94671)"
       gradientUnits="userSpaceOnUse"
       r="46"
       fy="296"
       fx="64.000008"
       cy="296"
       cx="64.000008"
       id="radialGradient916"
       xlink:href="#linearGradient914"
       inkscape:collect="always" /><clipPath
       clipPathUnits="userSpaceOnUse"
       id="clipPath11543"><rect
         style="fill:#f0c04e;fill-opacity:1;stroke:none;stroke-width:0.529037"
         id="rect11545"
         width="541.86664"
         height="541.86664"
         x="1.4746095e-06"
         y="6.4330168e-05"
         rx="79.375"
         ry="79.375" /></clipPath><style
       id="style374">.cls-1{fill:url(#linear-gradient);}.cls-2{opacity:0.35;fill:url(#radial-gradient);}.cls-2,.cls-4{isolation:isolate;}.cls-3{fill:url(#linear-gradient-2);}.cls-4{opacity:0.41;fill:url(#radial-gradient-2);}.cls-5{fill:url(#radial-gradient-3);}.cls-6{fill:url(#radial-gradient-4);}</style><linearGradient
       id="linear-gradient"
       x1="63.33"
       y1="84.03"
       x2="241.67"
       y2="84.03"
       gradientTransform="matrix(1,0,0,-1,0,266)"
       gradientUnits="userSpaceOnUse"><stop
         offset="0"
         stop-color="#0c59a4"
         id="stop376" /><stop
         offset="1"
         stop-color="#114a8b"
         id="stop378" /></linearGradient><radialGradient
       id="radial-gradient"
       cx="161.83"
       cy="68.91"
       r="95.38"
       gradientTransform="matrix(1,0,0,-0.95,0,248.84)"
       gradientUnits="userSpaceOnUse"><stop
         offset="0.72"
         stop-opacity="0"
         id="stop381" /><stop
         offset="0.95"
         stop-opacity="0.53"
         id="stop383" /><stop
         offset="1"
         id="stop385" /></radialGradient><linearGradient
       id="linear-gradient-2"
       x1="157.35"
       y1="161.39"
       x2="45.96"
       y2="40.06"
       gradientTransform="matrix(1,0,0,-1,0,266)"
       gradientUnits="userSpaceOnUse"><stop
         offset="0"
         stop-color="#1b9de2"
         id="stop388" /><stop
         offset="0.16"
         stop-color="#1595df"
         id="stop390" /><stop
         offset="0.67"
         stop-color="#0680d7"
         id="stop392" /><stop
         offset="1"
         stop-color="#0078d4"
         id="stop394" /></linearGradient><radialGradient
       id="radial-gradient-2"
       cx="-340.29"
       cy="62.99"
       r="143.24"
       gradientTransform="matrix(0.15,-0.99,-0.8,-0.12,176.64,-125.4)"
       gradientUnits="userSpaceOnUse"><stop
         offset="0.76"
         stop-opacity="0"
         id="stop397" /><stop
         offset="0.95"
         stop-opacity="0.5"
         id="stop399" /><stop
         offset="1"
         id="stop401" /></radialGradient><radialGradient
       id="radial-gradient-3"
       cx="113.37"
       cy="570.21"
       r="202.43"
       gradientTransform="matrix(-0.04,1,2.13,0.08,-1179.54,-106.69)"
       gradientUnits="userSpaceOnUse"><stop
         offset="0"
         stop-color="#35c1f1"
         id="stop404" /><stop
         offset="0.11"
         stop-color="#34c1ed"
         id="stop406" /><stop
         offset="0.23"
         stop-color="#2fc2df"
         id="stop408" /><stop
         offset="0.31"
         stop-color="#2bc3d2"
         id="stop410" /><stop
         offset="0.67"
         stop-color="#36c752"
         id="stop412" /></radialGradient><radialGradient
       id="radial-gradient-4"
       cx="376.52"
       cy="567.97"
       r="97.34"
       gradientTransform="matrix(0.28,0.96,0.78,-0.23,-303.76,-148.5)"
       gradientUnits="userSpaceOnUse"><stop
         offset="0"
         stop-color="#66eb6e"
         id="stop415" /><stop
         offset="1"
         stop-color="#66eb6e"
         stop-opacity="0"
         id="stop417" /></radialGradient><clipPath
       clipPathUnits="userSpaceOnUse"
       id="clipPath1260"><rect
         style="fill:#bbdefb;fill-opacity:1;stroke:none;stroke-width:0.529037"
         id="rect1262"
         width="541.86664"
         height="541.86664"
         x="2.9492187e-06"
         y="3.9968629e-05"
         rx="79.375"
         ry="79.375" /></clipPath><clipPath
       clipPathUnits="userSpaceOnUse"
       id="clipPath16285"><rect
         style="fill:#bbdefb;fill-opacity:1;stroke:none;stroke-width:0.529037"
         id="rect16287"
         width="541.86664"
         height="541.86664"
         x="0"
         y="6.4807005e-05"
         rx="79.375"
         ry="79.375" /></clipPath><clipPath
       clipPathUnits="userSpaceOnUse"
       id="clipPath990"><rect
         style="fill:#bbdefb;fill-opacity:1;stroke:none;stroke-width:0.529037"
         id="rect992"
         width="487.67996"
         height="487.67996"
         x="27.093349"
         y="27.093338"
         rx="71.4375"
         ry="71.4375" /></clipPath><linearGradient
       inkscape:collect="always"
       xlink:href="#linearGradient2626"
       id="linearGradient2628"
       x1="9"
       y1="66"
       x2="119"
       y2="66"
       gradientUnits="userSpaceOnUse"
       gradientTransform="translate(0,2)" /></defs><g
     inkscape:groupmode="layer"
     id="layer2"
     inkscape:label="Layer 1"><path
       id="path1712"
       style="fill:url(#linearGradient2628);fill-opacity:1;stroke-width:6.56225;stroke-linecap:square;stroke-linejoin:round;paint-order:markers stroke fill"
       d="M 64,13 A 55,55 0 0 0 9,68 55,55 0 0 0 64,123 55,55 0 0 0 119,68 55,55 0 0 0 118.94531,65.806641 55,55 0 0 1 119,68 v -6 h -0.33984 A 55,55 0 0 0 64,13 Z M 9,68 A 55,55 0 0 1 9.3925781,62 H 9 Z m 109.78516,-4.699219 a 55,55 0 0 1 0.10742,1.457031 55,55 0 0 0 -0.10742,-1.457031 z" /><path
       id="path4672"
       style="fill:#f2f2f2;fill-opacity:1;stroke-width:1"
       d="M 79.45117,35.980469 61.45312,85.462891 51.2793,113.375 a 55,55 0 0 0 11.11914,1.50977 L 73.60547,84.082031 h 15.468749 c 2.716892,0 5.694835,-2.08788 6.61914,-4.636719 L 107.88867,45.949219 c 1.99376,-5.482165 -1.14632,-9.96875 -6.98242,-9.96875 z m 9.070314,7.199219 h 8.75586 L 85.013672,76.830078 H 76.25586 Z" /><path
       style="fill:#f2f2f2;fill-opacity:1;stroke-width:1"
       d="M 61.48242,5.1796875 A 55,55 0 0 0 49.13086,7.0917969 L 38.61914,35.988281 21.10547,84.082031 H 32.76172 L 47.65234,43.208984 h 8.75977 L 41.52148,84.085938 H 53.17383 L 67.05469,45.949219 c 1.99629,-5.48217 -1.14419,-9.96875 -6.97266,-9.96875 h -9.80469 z"
       id="path4650" /><text
       xml:space="preserve"
       style="font-style:normal;font-variant:normal;font-weight:normal;font-stretch:normal;font-size:40px;line-height:1.25;font-family:'DejaVu Math TeX Gyre';-inkscape-font-specification:'DejaVu Math TeX Gyre';fill:#000000;fill-opacity:1;stroke:none"
       x="57.303368"
       y="70.244858"
       id="text3441"><tspan
         sodipodi:role="line"
         id="tspan3439"
         x="57.303368"
         y="70.244858" /></text><text
       xml:space="preserve"
       style="font-size:40px;line-height:1.25;font-family:Caladea;-inkscape-font-specification:Caladea"
       x="43.168587"
       y="70.812454"
       id="text13903"><tspan
         sodipodi:role="line"
         id="tspan13901"
         x="43.168587"
         y="70.812454" /></text><path
       d="m 64,115 c -0.547454,0 -1.092361,0 -1.634722,-0.0255 L 73.604629,84.08287 H 89.07338 c 2.716898,0 5.696064,-2.087963 6.620371,-4.636806 L 107.88796,45.949536 c 1.99376,-5.482175 -1.14583,-9.96875 -6.98194,-9.96875 H 79.450926 L 61.453704,85.462964 v 0 L 51.230324,113.50787 C 27.0125,107.74815 8.9999996,85.972222 8.9999996,59.999999 8.9999996,34.771295 25.988889,13.509721 49.15,7.0370365 L 38.618518,35.988425 v 0 L 21.105092,84.082871 h 11.656944 l 14.890742,-40.87315 h 8.759259 L 41.521296,84.085417 H 53.173148 L 67.055556,45.949536 c 1.996297,-5.482175 -1.145834,-9.96875 -6.974305,-9.96875 H 50.278009 L 61.527546,5.0585642 Q 62.757408,4.9999996 64,4.9999996 c 30.374769,0 55,24.6252304 55,54.9999994 C 119,90.374769 94.374769,115 64,115 Z M 97.277546,43.179166 H 88.520833 L 76.255324,76.831019 h 8.75926 z"
       style="fill:#3b86c4;stroke-width:0.254629;fill-opacity:1"
       id="path372" /><path
       id="path960"
       style="fill:#abd4f5;stroke-width:0.254629;fill-opacity:1"
       d="M 64 5 C 63.171606 5 62.347251 5.0195507 61.527344 5.0585938 L 50.277344 35.980469 L 51.005859 35.980469 L 61.527344 7.0585938 C 62.347251 7.0195507 63.171606 7 64 7 C 94.039339 7 118.43906 31.088508 118.97461 61 C 118.98059 60.666028 119 60.3354 119 60 C 119 29.625261 94.374739 5 64 5 z M 49.150391 7.0371094 C 25.989303 13.509787 9 34.771321 9 60 C 9 60.327272 9.0157879 60.650647 9.0214844 60.976562 C 9.4695287 36.496487 25.905827 15.931128 48.333984 9.2832031 L 49.150391 7.0371094 z M 88.521484 43.179688 L 76.255859 76.830078 L 76.984375 76.830078 L 88.521484 45.179688 L 96.548828 45.179688 L 97.277344 43.179688 L 88.521484 43.179688 z M 47.652344 43.208984 L 32.761719 84.082031 L 21.833984 84.082031 L 21.105469 86.082031 L 32.761719 86.082031 L 47.652344 45.208984 L 55.683594 45.208984 L 56.412109 43.208984 L 47.652344 43.208984 z M 67.582031 43.785156 C 67.494201 44.483348 67.325438 45.205691 67.054688 45.949219 L 53.173828 84.085938 L 42.25 84.085938 L 41.521484 86.085938 L 53.173828 86.085938 L 67.054688 47.949219 C 67.596016 46.462636 67.747481 45.055716 67.582031 43.785156 z M 108.41406 43.785156 C 108.32643 44.483348 108.15908 45.205691 107.88867 45.949219 L 95.693359 79.445312 C 94.769053 81.994153 91.791114 84.082031 89.074219 84.082031 L 73.605469 84.082031 L 62.365234 114.97461 C 62.60499 114.98588 62.84714 114.98282 63.087891 114.98633 L 73.605469 86.082031 L 89.074219 86.082031 C 91.791114 86.082031 94.769053 83.994153 95.693359 81.445312 L 107.88867 47.949219 C 108.42931 46.462636 108.57976 45.055716 108.41406 43.785156 z " /></g></svg>

<svg xmlns="http://www.w3.org/2000/svg" xmlns:xlink="http://www.w3.org/1999/xlink" xml:space="preserve" width="128" height="128" viewBox="0 0 128 128">
    <defs>
        <linearGradient id="a">
            <stop offset="0" style="stop-color:#236096;stop-opacity:1"/>
            <stop offset=".402" style="stop-color:#236096;stop-opacity:1"/>
            <stop offset=".5" style="stop-color:#2b70ab;stop-opacity:1"/>
            <stop offset=".601" style="stop-color:#236096;stop-opacity:1"/>
            <stop offset="1" style="stop-color:#236096;stop-opacity:1"/>
        </linearGradient>
        <linearGradient xlink:href="#a" id="b" x1="9" x2="119" y1="66" y2="66" gradientTransform="translate(0 2)" gradientUnits="userSpaceOnUse"/>
    </defs>
    <path d="M64 13A55 55 0 0 0 9 68a55 55 0 0 0 55 55 55 55 0 0 0 55-55 55 55 0 0 0-.055-2.193A55 55 0 0 1 119 68v-6h-.34A55 55 0 0 0 64 13M9 68a55 55 0 0 1 .393-6H9Zm109.785-4.7a55 55 0 0 1 .108 1.458 55 55 0 0 0-.108-1.457" style="fill:url(#b);fill-opacity:1;stroke-width:6.56225;stroke-linecap:square;stroke-linejoin:round;paint-order:markers stroke fill"/>
    <path d="M79.451 35.98 61.453 85.463 51.28 113.375a55 55 0 0 0 11.12 1.51l11.206-30.803h15.47c2.716 0 5.694-2.088 6.618-4.637L107.89 45.95c1.993-5.482-1.147-9.969-6.983-9.969zm9.07 7.2h8.756L85.014 76.83h-8.758Zm-27.039-38a55 55 0 0 0-12.351 1.912L38.619 35.988 21.105 84.082h11.657l14.89-40.873h8.76l-14.89 40.877h11.652l13.88-38.137c1.997-5.482-1.144-9.969-6.972-9.969h-9.805z" style="fill:#f2f2f2;fill-opacity:1;stroke-width:1"/>
    <path d="M64 115c-.547 0-1.092 0-1.635-.025l11.24-30.892h15.468c2.717 0 5.696-2.088 6.62-4.637l12.195-33.496c1.994-5.483-1.146-9.97-6.982-9.97H79.451L61.454 85.464 51.23 113.508C27.013 107.748 9 85.972 9 60 9 34.771 25.989 13.51 49.15 7.037L38.619 35.988 21.105 84.083h11.657l14.89-40.873h8.76l-14.89 40.875h11.651L67.056 45.95c1.996-5.483-1.146-9.97-6.975-9.97h-9.803l11.25-30.92Q62.758 5 64 5c30.375 0 55 24.625 55 55s-24.625 55-55 55m33.278-71.82H88.52L76.255 76.83h8.76z" style="fill:#3b86c4;stroke-width:.254629;fill-opacity:1"/>
    <path d="M64 5q-1.243 0-2.473.059L50.277 35.98h.729L61.527 7.06Q62.757 6.999 64 7c30.04 0 54.44 24.089 54.975 54 .006-.334.025-.665.025-1 0-30.375-24.625-55-55-55M49.15 7.037C25.99 13.51 9 34.771 9 60c0 .327.016.65.021.977.449-24.48 16.885-45.046 39.313-51.694zM88.521 43.18 76.256 76.83h.728l11.537-31.65h8.028l.728-2zm-40.869.029-14.89 40.873H21.834l-.729 2h11.657l14.89-40.873h8.032l.728-2zm19.93.576a10 10 0 0 1-.527 2.164L53.174 84.086H42.25l-.729 2h11.653l13.88-38.137c.542-1.486.693-2.893.528-4.164m40.832 0a10 10 0 0 1-.525 2.164L95.693 79.445c-.924 2.55-3.902 4.637-6.619 4.637H73.605l-11.24 30.893c.24.01.482.008.723.011l10.517-28.904h15.47c2.716 0 5.694-2.088 6.618-4.637L107.89 47.95c.54-1.486.69-2.893.525-4.164" style="fill:#abd4f5;stroke-width:.254629;fill-opacity:1"/>
</svg>
